!!!OTL: Ein lust'ger Musikant (3-17), S. 45f
!!!id: K1154
**kern
*clefG2
*k[f#]
*G:
{8d
=1
8.g
16f#
8g
8a
=2
8g
8f#
8e
8d
=3
8.g
8f#
16g
8b
=4
4a}
8r
=5
{8d
=6
8.g
16f#
8e
8a
=7
4g
4f#
=8
4g}
8r
=9
{8b
=10
8.b
16b
8b
8b
=11
4cc
8cc
8b
=12
8.a
16a
8a
8a
=13
4.dd}
=14
{8b
=15
4b
16b
16b
8b
=16
4.cc
8b
=17
8.a
16a
8a
8a
=18
4.dd}
=19
{8g
=20
8.g
16g
8g
8f#
=21
8e
8cc
8b
8a
=22
4b
4a
=23
4.g}
=24
{8b
=25
8.b
16b
8b
8b
=26
4cc
8cc
8b
=27
8.a
16a
8a
8a
=28
4.dd}
=29
{8b
=30
4b
16b
16b
8b
=31
4.cc
8b
=32
8.a
16a
8a
8a
=33
4.dd}
=34
{8g
=35
8.g
16g
8g
8f#
=36
8e
8cc
8b
8a
=37
4b
4a
=38
4.g}
==
*-
!!!minrhy: 16
!!!meters: 2/4 ]  ZZ[8
!!!cut: Ein lust'ger Musikant (3-17), S. 45f
!!!reg: Luxemburg
!!!trd: KINTZELE, Guillaume: An der Ucht, Bd. 3 Luxemburg 1928
!!!rhy1: X_  X_.XX_X_  X_X_X_X_  X_.X_XX_  X__0_
!!!rhy2: X_  X_.XX_X_  X__X__  X__0_
!!!key: K1154  16  G 2/4 ]  ZZ[8
!!!mod: HEPTATONIK IONISCH]  AMBITUS[8
!!!kad: 21551551
!!!akz: 1112_111_3425_3425_1-631_3425_3425_1-631_
!!!fot: 'a__b__c__cv_d__c__cv_d__
!!!for: 'a__b__c__d__e__c__d__e__
!!!fok: '~a_~a_/__/__S__/__/__S__
!! PHRAS[AUFTAKTIG]
!!!fkt: Scherz-, Spottlied, Trinklied
!!!bem: in der Quelle mit einer 2. Stimme versehen
!! KINTZELE
!! PR[18] 2K[4] 2G[14] 3K[14] 3G[4] 4A[6] 4Ü[2] 5A[0] 6K[0] 6G[0]
!! 7K[0] 7G[0] 8A[0] MEHR[0] SI[43] ABS[51] SR[18] SP[25]
!! ST[12] 2k[4] 2g[16] 3k[8] 3g[0] 4d[10] 4ü[2] 5d[0] 6k[0] 6g[0]
!! 7k[0] 7g[0] 8d[0] mehr[0] si[39] dm[+4] sr[20] sp[20]
!! 1F[2] 2F[69] 3F[15] 4F[0] LF[0] 2P[2] 3P[12] 4P[0] TRI[0] DF[5] AB[52]
!! TF[0] U3K[0] U3[0] U4[0] U4Ü[0] U5[0] U6K[0] U6[0] U7K[0] U7[0]
!! N1[0] N2K[0] N2[2] N3K[0] N3[8] N4[8] N4Ü[0] N5[21] N6K[0] N6[10]
!!!n7k: 0] N7[12] O1[15] O2K[0] O2[13] O3K[0] O3[12] HÖ[0
